X:1
T:IX. Go crystall teares,
T: Cantus
C: John Dowland
O: From The First Booke of songs or Ayres of foure parts, with Tableture for the Lute
L:1/4
M:C
K:G dor
G4 G2 _A2 | G4 z2 G2 | G>A B2 c3 d | =B4
z2 G2 | c2 c2  |"(1)"_e6 d2 c2 =B2 | c3 c d8 | z B G A B2 c2 | B2 G2 
N:(1)Original has a barline between the note and the dot.
